X:15
T:The Ship in Full Sail
M:6/8
L:1/8
Q:120
C:Traditional
K:C
E2 |:DGG BGG |dBG GBd |edg dBG |1
ABA AGE :|2AGE G2 B ||dgg bgg |aga bge |
d2 g bgg |aba age |dgg bgg |aga bag |
ege dBG |AGE G2 E ||
